X:1
T:Psalm 32
T:V 6
L:1/4
M:18/4
I:linebreak $
K:C
V:1 treble nm="Pipe Organ" snm="Org."
V:1
 c2 c c B2 G2 A B c B A2 G3 z |$ G2 G G A2 G2 F A G F E2 C3 z |$ %2
w: Reg- ver- di- ges, laat hoor die bly- e ty- ding!|Sing voor die HEER 'n lof- sang van be- vry- ding,|
[M:16/4] G2 G G A2 c2 B G A A G3 z |$[M:18/4] G2 A A G2 F2 E D C2 D2 C4 |] %4
w: 'n sang wat juig oor skuld- ver- gif- fe- nis.|Sing, wie op- reg van hart en wan- del is!|

